X:46
T:Di Tanti Palpita. CJF.046
R:Air
C:Rossini
S:C.J.Fox MS, 1829/33, Beverley,E.Yorks.
N:The triplets are no marked as such in the MS – PJH.
B:Kidson Coll.Mitchell Lib.M1805
O:England
A:East Yorkshire
Z:vmp.P J Headford 2000 & 2008
M:2/4
L:1/16
Q:1/4=60
K:G
“mf”B4 B2B2|(B>A)(B>c) d2z2|((3cdc) ((3BcB) A2d2|\
((3BcB) ((3ABA) G2z2|B4 B2B2|(B>A)(Bc) d2z2|\
((3cdc) ((3BcB) A2d2|G6z2||!
A4(^GA)(cA)|(F4D2)z2|G4B2d2|A4({cB}A2)z2|\
A4(^GA)(cA)|(F4D2)z2|G4B2d2|A6^A2|]

